assets/img/jaxon-placeholder-logo-03.1.2.svg

<svg fill="none" height="38" viewBox="0 0 141 38" width="141" xmlns="http://www.w3.org/2000/svg"><g fill="#f4f4f4"><path d="m41.2803 12.4807h3.4193v13.8477h-3.4193zm4.7827 8.6388c0-3.4299 2.1305-5.4858 5.3261-5.4858s5.326 2.0559 5.326 5.4858c0 3.43-2.0559 5.5072-5.326 5.5072-3.2702 0-5.3261-2.0026-5.3261-5.5072zm7.2647 0c0-1.8854-.735-2.9932-1.9067-2.9932s-1.896 1.0652-1.896 2.9932c0 1.9281.7243 2.9826 1.896 2.9826s1.928-1.0545 1.928-2.9719zm4.7509 5.9226h3.3021c.1503.3554.4129.6521.7475.8444.3347.1923.7231.2699 1.1059.2208 1.3102 0 1.992-.703 1.992-1.7469v-1.9174h.0106c-.2821.597-.7385 1.0946-1.3088 1.4274-.5704.3327-1.2282.4849-1.8868.4367-2.5032 0-4.1649-1.9067-4.1649-5.1876 0-3.2808 1.5871-5.326 4.2608-5.326.6754-.0361 1.3455.1381 1.9178.4986.5723.3606 1.0187.8898 1.2778 1.5147h-.0959v-1.9281h3.3874v10.3751c0 2.5033-2.2156 4.0691-5.4752 4.0691-2.9612-.0106-4.8573-1.3634-5.049-3.2702zm7.1581-5.9226c0-1.6723-.7669-2.7269-1.9813-2.7269-1.2143 0-1.9599 1.0652-1.9599 2.7269 0 1.6618.735 2.6418 1.9599 2.6418 1.225 0 1.9813-.9055 1.9813-2.6418zm4.7402 0c0-3.4299 2.1304-5.4858 5.326-5.4858s5.326 2.0559 5.326 5.4858c0 3.43-2.0665 5.5072-5.326 5.5072s-5.3047-2.0026-5.3047-5.5072zm7.2647 0c0-1.8854-.7457-2.9932-1.9067-2.9932-1.1611 0-1.8961 1.0652-1.8961 2.9932 0 1.9281.7243 2.9826 1.8961 2.9826 1.1717 0 1.928-1.0545 1.928-2.9719zm4.7721-7.7653c-.0149-.3483.0748-.6931.2575-.99.1826-.297.45-.5324.7677-.6761.3176-.1438.6709-.1892 1.0146-.1304.3436.0587.6618.2189.9136.46.2518.2412.4257.552.4995.8927.0736.3408.0436.6958-.0861 1.0193-.1298.3236-.3533.601-.642.7965s-.6292.3001-.9779.3004c-.2227.0056-.4445-.033-.6522-.1137s-.3974-.2019-.5579-.3565c-.1606-.1546-.2888-.3395-.3772-.5441-.0885-.2045-.1355-.4246-.1383-.6474zm0 2.5139h3.4619v10.5029h-3.4086zm15.9142 5.2514c0 3.4194-1.5339 5.4006-4.1437 5.4006-.6681.0413-1.3328-.1236-1.9043-.4722-.5714-.3486-1.0221-.8642-1.2913-1.4771h-.0639v5.1769h-3.4193v-13.8477h3.398v1.8748h.0639c.2599-.625.7062-1.1547 1.278-1.5168.5719-.3622 1.2415-.5393 1.9176-.5071 2.6843-.0213 4.2289 1.9493 4.2289 5.3793zm-3.4833 0c0-1.6617-.7776-2.7375-1.9812-2.7375-1.2037 0-1.96 1.0652-1.9707 2.7375-.0106 1.6724.767 2.727 1.9707 2.727 1.2036 0 2.0452-.9907 2.0452-2.7163zm9.3204-5.4964c2.866 0 4.644 1.3528 4.666 3.5258h-3.121c0-.7563-.629-1.225-1.566-1.225-.938 0-1.385.3622-1.385.9055 0 .5432.394.7136 1.182.8734l2.195.4474c2.13.4474 2.982 1.2996 2.982 2.8867 0 2.1304-1.97 3.5791-4.9 3.5791-2.929 0-4.8356-1.4061-4.9741-3.5471h3.3131c.096.7776.713 1.2356 1.715 1.2356 1.001 0 1.47-.3196 1.47-.8841 0-.5646-.32-.6604-1.14-.8309l-1.981-.4154c-2.056-.4367-3.1321-1.5126-3.1321-3.1211.0639-2.0878 1.8531-3.4193 4.7401-3.4193zm16.404 10.7373h-3.312v-1.9707h-.064c-.186.6574-.589 1.2318-1.145 1.6287-.557.397-1.231.5927-1.913.555-.514.0167-1.027-.0755-1.504-.2709-.476-.1952-.906-.4891-1.261-.8623-.356-.3732-.627-.8173-.799-1.303-.171-.4858-.238-1.0024-.196-1.5157v-6.7428h3.42v6.0078c0 1.2356.649 1.9067 1.715 1.9067.25-.0019.496-.0574.723-.1626.227-.1054.428-.2581.59-.448.163-.1898.283-.4123.353-.6524.068-.2402.085-.4923.049-.7396v-5.9119h3.408zm1.651-10.4923h3.324v2.0239h.074c.184-.6484.578-1.2176 1.119-1.6185.542-.4008 1.201-.6109 1.875-.5972.676-.0587 1.35.1368 1.889.5485.54.4117.907 1.0101 1.029 1.6778h.149c.213-.6714.642-1.2536 1.22-1.6562.577-.4026 1.273-.603 1.976-.5701.468-.0177.934.0634 1.368.2382.434.1747.826.4392 1.151.7761s.574.7385.733 1.1787c.16.4401.224.9088.189 1.3755v7.1262h-3.441v-6.2527c0-1.0653-.501-1.6618-1.47-1.6618-.215-.0035-.428.0396-.625.126-.197.0866-.372.2148-.515.3756-.142.161-.249.3507-.312.5565-.062.2058-.079.4226-.05.6356v6.2208h-3.259v-6.2847c0-1.0652-.522-1.6298-1.46-1.6298-.217-.0017-.432.0431-.63.1313-.2.0883-.376.2179-.521.3804-.144.1624-.252.3538-.316.5613-.065.2076-.084.4265-.056.642v6.1995h-3.419z"/><path d="m34.516 13.3861c.0001-2.1201-.6401-4.19081-1.8367-5.94088-1.1967-1.75007-2.8941-3.09792-4.8697-3.867-1.9757-.76909-4.1376-.92354-6.2025-.44315-2.065.4804-3.9367 1.57326-5.37 3.13542h-13.29374v28.05751h28.06814v-13.1127c1.1016-.9853 1.9832-2.1919 2.587-3.5409.6039-1.3491.9165-2.8103.9175-4.2883zm-5.4006 0c.0021 1.0158-.2972 2.0096-.86 2.8553-.563.8457-1.364 1.5055-2.302 1.8957-.9381.3903-1.9707.4935-2.9674.2965-.9966-.1968-1.9125-.685-2.6316-1.4026-.7191-.7177-1.2091-1.6324-1.4081-2.6287-.1989-.9962-.0979-2.0291.2904-2.9679s1.0464-1.74131 1.8909-2.30594c.8446-.56464 1.8376-.86602 2.8535-.86604 1.3599 0 2.6642.53948 3.6267 1.50004.9627.96054 1.5048 2.26374 1.5076 3.62364zm-3.5045 15.5413h-17.26695v-17.2563h5.26205c-.1016.5661-.1551 1.1399-.1597 1.715.0028 2.7931 1.1136 5.4711 3.0887 7.4462 1.975 1.975 4.653 3.0859 7.4461 3.0886.5462-.0028 1.0911-.0492 1.6298-.1384z"/></g></svg>

<svg width="141" height="38" viewBox="0 0 141 38" fill="none" xmlns="http://www.w3.org/2000/svg">
<path d="M41.2803 12.4807H44.6996V26.3284H41.2803V12.4807ZM46.063 21.1195C46.063 17.6896 48.1935 15.6337 51.3891 15.6337C54.5847 15.6337 56.7151 17.6896 56.7151 21.1195C56.7151 24.5495 54.6592 26.6267 51.3891 26.6267C48.1189 26.6267 46.063 24.6241 46.063 21.1195ZM53.3277 21.1195C53.3277 19.2341 52.5927 18.1263 51.421 18.1263C50.2493 18.1263 49.525 19.1915 49.525 21.1195C49.525 23.0476 50.2493 24.1021 51.421 24.1021C52.5927 24.1021 53.349 23.0476 53.349 21.1302L53.3277 21.1195ZM58.0786 27.0421H61.3807C61.531 27.3975 61.7936 27.6942 62.1282 27.8865C62.4629 28.0788 62.8513 28.1564 63.2341 28.1073C64.5443 28.1073 65.2261 27.4043 65.2261 26.3604V24.443H65.2367C64.9546 25.04 64.4982 25.5376 63.9279 25.8704C63.3575 26.2031 62.6997 26.3553 62.0411 26.3071C59.5379 26.3071 57.8762 24.4004 57.8762 21.1195C57.8762 17.8387 59.4633 15.7935 62.137 15.7935C62.8124 15.7574 63.4825 15.9316 64.0548 16.2921C64.6271 16.6527 65.0735 17.1819 65.3326 17.8068H65.2367V15.8787H68.6241V26.2538C68.6241 28.7571 66.4085 30.3229 63.1489 30.3229C60.1877 30.3123 58.2916 28.9595 58.0999 27.0527L58.0786 27.0421ZM65.2367 21.1195C65.2367 19.4472 64.4698 18.3926 63.2554 18.3926C62.0411 18.3926 61.2955 19.4578 61.2955 21.1195C61.2955 22.7813 62.0305 23.7613 63.2554 23.7613C64.4804 23.7613 65.2367 22.8558 65.2367 21.1195ZM69.9769 21.1195C69.9769 17.6896 72.1073 15.6337 75.3029 15.6337C78.4985 15.6337 80.6289 17.6896 80.6289 21.1195C80.6289 24.5495 78.5624 26.6267 75.3029 26.6267C72.0434 26.6267 69.9982 24.6241 69.9982 21.1195H69.9769ZM77.2416 21.1195C77.2416 19.2341 76.4959 18.1263 75.3349 18.1263C74.1738 18.1263 73.4388 19.1915 73.4388 21.1195C73.4388 23.0476 74.1631 24.1021 75.3349 24.1021C76.5066 24.1021 77.2629 23.0476 77.2629 21.1302L77.2416 21.1195ZM82.0137 13.3542C81.9988 13.0059 82.0885 12.6611 82.2712 12.3642C82.4538 12.0672 82.7212 11.8318 83.0389 11.6881C83.3565 11.5443 83.7098 11.4989 84.0535 11.5577C84.3971 11.6164 84.7153 11.7766 84.9671 12.0177C85.2189 12.2589 85.3928 12.5697 85.4666 12.9104C85.5402 13.2512 85.5102 13.6062 85.3805 13.9297C85.2507 14.2533 85.0272 14.5307 84.7385 14.7262C84.4498 14.9217 84.1093 15.0263 83.7606 15.0266C83.5379 15.0322 83.3161 14.9936 83.1084 14.9129C82.9007 14.8322 82.711 14.711 82.5505 14.5564C82.3899 14.4018 82.2617 14.2169 82.1733 14.0123C82.0848 13.8078 82.0378 13.5877 82.035 13.3649L82.0137 13.3542ZM82.0137 15.8681H85.4756V26.371H82.067L82.0137 15.8681ZM97.9279 21.1195C97.9279 24.5389 96.394 26.5201 93.7842 26.5201C93.1161 26.5614 92.4514 26.3965 91.8799 26.0479C91.3085 25.6993 90.8578 25.1837 90.5886 24.5708H90.5247V29.7477H87.1054V15.9H90.5034V17.7748H90.5673C90.8272 17.1498 91.2735 16.6201 91.8453 16.258C92.4172 15.8958 93.0868 15.7187 93.7629 15.7509C96.4472 15.7296 97.9918 17.7002 97.9918 21.1302L97.9279 21.1195ZM94.4446 21.1195C94.4446 19.4578 93.667 18.382 92.4634 18.382C91.2597 18.382 90.5034 19.4472 90.4927 21.1195C90.4821 22.7919 91.2597 23.8465 92.4634 23.8465C93.667 23.8465 94.5086 22.8558 94.5086 21.1302L94.4446 21.1195ZM103.765 15.6231C106.631 15.6231 108.409 16.9759 108.431 19.1489H105.31C105.31 18.3926 104.681 17.9239 103.744 17.9239C102.806 17.9239 102.359 18.2861 102.359 18.8294C102.359 19.3726 102.753 19.543 103.541 19.7028L105.736 20.1502C107.866 20.5976 108.718 21.4498 108.718 23.0369C108.718 25.1673 106.748 26.616 103.818 26.616C100.889 26.616 98.9824 25.2099 98.8439 23.0689H102.157C102.253 23.8465 102.87 24.3045 103.872 24.3045C104.873 24.3045 105.342 23.9849 105.342 23.4204C105.342 22.8558 105.022 22.76 104.202 22.5895L102.221 22.1741C100.165 21.7374 99.0889 20.6615 99.0889 19.053C99.1528 16.9652 100.942 15.6337 103.829 15.6337L103.765 15.6231ZM120.169 26.3604H116.857V24.3897H116.793C116.607 25.0471 116.204 25.6215 115.648 26.0184C115.091 26.4154 114.417 26.6111 113.735 26.5734C113.221 26.5901 112.708 26.4979 112.231 26.3025C111.755 26.1073 111.325 25.8134 110.97 25.4402C110.614 25.067 110.343 24.6229 110.171 24.1372C110 23.6514 109.933 23.1348 109.975 22.6215V15.8787H113.395V21.8865C113.395 23.1221 114.044 23.7932 115.11 23.7932C115.36 23.7913 115.606 23.7358 115.833 23.6306C116.06 23.5252 116.261 23.3725 116.423 23.1826C116.586 22.9928 116.706 22.7703 116.776 22.5302C116.844 22.29 116.861 22.0379 116.825 21.7906V15.8787H120.233L120.169 26.3604ZM121.82 15.8681H125.144V17.892H125.218C125.402 17.2436 125.796 16.6744 126.337 16.2735C126.879 15.8727 127.538 15.6626 128.212 15.6763C128.888 15.6176 129.562 15.8131 130.101 16.2248C130.641 16.6365 131.008 17.2349 131.13 17.9026H131.279C131.492 17.2312 131.921 16.649 132.499 16.2464C133.076 15.8438 133.772 15.6434 134.475 15.6763C134.943 15.6586 135.409 15.7397 135.843 15.9145C136.277 16.0892 136.669 16.3537 136.994 16.6906C137.319 17.0275 137.568 17.4291 137.727 17.8693C137.887 18.3094 137.951 18.7781 137.916 19.2448V26.371H134.475V20.1183C134.475 19.053 133.974 18.4565 133.005 18.4565C132.79 18.453 132.577 18.4961 132.38 18.5825C132.183 18.6691 132.008 18.7973 131.865 18.9581C131.723 19.1191 131.616 19.3088 131.553 19.5146C131.491 19.7204 131.474 19.9372 131.503 20.1502V26.371H128.244V20.0863C128.244 19.0211 127.722 18.4565 126.784 18.4565C126.567 18.4548 126.352 18.4996 126.154 18.5878C125.954 18.6761 125.778 18.8057 125.633 18.9682C125.489 19.1306 125.381 19.322 125.317 19.5295C125.252 19.7371 125.233 19.956 125.261 20.1715V26.371H121.842L121.82 15.8681Z" fill="#F4F4F4"/>
<path d="M34.516 13.3861C34.5161 11.266 33.8759 9.19529 32.6793 7.44522C31.4826 5.69515 29.7852 4.3473 27.8096 3.57822C25.8339 2.80913 23.672 2.65468 21.6071 3.13507C19.5421 3.61547 17.6704 4.70833 16.2371 6.27049H2.94336V34.328H31.0115V21.2153C32.1131 20.23 32.9947 19.0234 33.5985 17.6744C34.2024 16.3253 34.515 14.8641 34.516 13.3861ZM29.1154 13.3861C29.1175 14.4019 28.8182 15.3957 28.2554 16.2414C27.6924 17.0871 26.8914 17.7469 25.9534 18.1371C25.0153 18.5274 23.9827 18.6306 22.986 18.4336C21.9894 18.2368 21.0735 17.7486 20.3544 17.031C19.6353 16.3133 19.1453 15.3986 18.9463 14.4023C18.7474 13.4061 18.8484 12.3732 19.2367 11.4344C19.625 10.4956 20.2831 9.69309 21.1276 9.12846C21.9722 8.56382 22.9652 8.26244 23.9811 8.26242C25.341 8.26242 26.6453 8.8019 27.6078 9.76246C28.5705 10.723 29.1126 12.0262 29.1154 13.3861ZM25.6109 28.9274H8.34395V11.6711H13.606C13.5044 12.2372 13.4509 12.811 13.4463 13.3861C13.4491 16.1792 14.5599 18.8572 16.535 20.8323C18.51 22.8073 21.188 23.9182 23.9811 23.9209C24.5273 23.9181 25.0722 23.8717 25.6109 23.7825V28.9274Z" fill="#F4F4F4"/>
</svg>
